X: 374
T:London Lasses, The
T:Streams in the Valley
R:reel
D:Matt Molloy &amp; Sean Keane: Contentment is Wealth
D:Sean Ryan: Siuil Uait
Z:id:hn-reel-214
M:C|
K:G
~G3B dG (3Bcd|eaag eg~g2|~G3B dG (3Bcd|e2dB AGEF|
~G3B dG (3Bcd|eaag eg~g2|bgag (3efg fa|1 gedB AGEF:|2 gedB AGef||
|:g2fg efge|dG~G2 BG (3Bcd|g2fg efge|dBGA BA~A2|
g2fg efge|dB~B2 dega|bgag (3efg fa|1 gedB AGef:|2 gedB AGEF||
"Variations:"
|:G2 (3BAG dGBd|e2ag efg2|G2BG dGBd|egdB AGEF|
G2BG dGBd|eaag efga|(3bag ag egfa|1 gedB AGEF:|2 gedB AGef||
|:~g3d efge|dG~G2 BGBd|g2fg edBe|dBGA BA~A2|
g2fg de~e2|dB~B2 (3def ga|(3bag ag egfa|1 gedB AGef:|2 gedB AGEF||

